sources/design/Outline/ð.svg

<svg:svg xmlns:cc="http://creativecommons.org/ns#" xmlns:dc="http://purl.org/dc/elements/1.1/" xmlns:inkscape="http://www.inkscape.org/namespaces/inkscape" xmlns:rdf="http://www.w3.org/1999/02/22-rdf-syntax-ns#" xmlns:sodipodi="http://sodipodi.sourceforge.net/DTD/sodipodi-0.dtd" xmlns:svg="http://www.w3.org/2000/svg" xml:space="preserve" width="1000" height="1000" version="1.1" style="clip-rule:evenodd;fill-rule:evenodd;image-rendering:optimizeQuality;shape-rendering:geometricPrecision;text-rendering:geometricPrecision" viewBox="0 0 1000 1000" id="svg10" sodipodi:docname="ð.svg" inkscape:version="1.1.1 (3bf5ae0d25, 2021-09-20)"><svg:metadata id="metadata14"><rdf:RDF><cc:Work rdf:about=""><dc:format>image/svg+xml</dc:format><dc:type rdf:resource="http://purl.org/dc/dcmitype/StillImage" /><dc:title /></cc:Work></rdf:RDF></svg:metadata><sodipodi:namedview pagecolor="#ffffff" bordercolor="#666666" borderopacity="1" objecttolerance="10" gridtolerance="10" guidetolerance="10" inkscape:pageopacity="0" inkscape:pageshadow="2" inkscape:window-width="1920" inkscape:window-height="1009" id="namedview12" showgrid="false" inkscape:zoom="0.84890884" inkscape:cx="165.50658" inkscape:cy="204.969" inkscape:window-x="0" inkscape:window-y="60" inkscape:window-maximized="1" inkscape:current-layer="g24621" showguides="true" inkscape:guide-bbox="true" inkscape:document-rotation="0" inkscape:pagecheckerboard="0"><sodipodi:guide position="0,1000" orientation="0,1" id="guide16" inkscape:label="" inkscape:locked="true" inkscape:color="rgb(0,0,255)" /><sodipodi:guide position="1763.3122,2036.1693" orientation="1000,0" id="guide18" /><sodipodi:guide position="0,200" orientation="0,1" id="guide20" inkscape:label="base" inkscape:locked="true" inkscape:color="rgb(0,0,255)" /><inkscape:grid type="xygrid" id="grid24" originx="-473.37552" originy="-489.69235" /><sodipodi:guide position="0,0" orientation="0,1" id="guide34" inkscape:label="bottom" inkscape:locked="true" inkscape:color="rgb(0,0,255)" /><sodipodi:guide position="225.05109,1693.3186" orientation="0,1" id="guide44" inkscape:label="" inkscape:locked="false" inkscape:color="rgb(0,0,255)" /><sodipodi:guide position="0,900" orientation="0,1" id="guide46" inkscape:label="" inkscape:locked="true" inkscape:color="rgb(0,0,255)" /><sodipodi:guide position="479.0795,834.54867" orientation="1,0" id="guide841" inkscape:label="width" />    <sodipodi:guide position="-210.85892,799.74293" orientation="0,-1" id="guide856" /></sodipodi:namedview>
 <svg:defs id="defs4"><inkscape:path-effect effect="fillet_chamfer" id="path-effect25183" is_visible="true" lpeversion="1" satellites_param="F,0,0,1,0,15.486589,0,1 @ F,0,1,1,0,15.486589,0,1 @ F,0,0,1,0,0,0,1 @ F,0,1,1,0,15.486589,0,1 @ F,0,1,1,0,15.486589,0,1 @ F,0,0,1,0,0,0,1" unit="px" method="auto" mode="F" radius="0" chamfer_steps="1" flexible="false" use_knot_distance="true" apply_no_radius="true" apply_with_radius="true" only_selected="false" hide_knots="false" /><inkscape:path-effect effect="fillet_chamfer" id="path-effect25044" is_visible="true" lpeversion="1" satellites_param="F,0,0,1,0,0,0,1 @ F,0,0,1,0,0,0,1 @ F,0,0,1,0,0,0,1 @ F,0,0,1,0,0,0,1 @ F,0,0,1,0,0,0,1 @ F,0,0,1,0,0,0,1 @ F,0,0,1,0,0,0,1 @ F,0,0,1,0,0,0,1 @ F,0,0,1,0,0,0,1 @ F,0,0,1,0,0,0,1 @ F,0,0,1,0,0,0,1 | F,0,0,1,0,0,0,1 @ F,0,0,1,0,0,0,1 @ F,0,0,1,0,0,0,1 @ F,0,0,1,0,0,0,1 @ F,0,0,1,0,0,0,1 @ F,0,0,1,0,0,0,1 @ F,0,0,1,0,0,0,1 @ F,0,0,1,0,0,0,1 @ F,0,0,1,0,0,0,1 @ F,0,0,1,0,0,0,1 @ F,0,0,1,0,0,0,1 @ F,0,0,1,0,0,0,1 @ F,0,0,1,0,7.8602619,0,1 @ F,0,0,1,0,11.716345,0,1 @ F,0,0,1,0,0,0,1 @ F,0,0,1,0,0,0,1" unit="px" method="auto" mode="F" radius="0" chamfer_steps="1" flexible="false" use_knot_distance="true" apply_no_radius="true" apply_with_radius="true" only_selected="false" hide_knots="false" /><inkscape:path-effect effect="spiro" id="path-effect2489" is_visible="true" lpeversion="1" /><inkscape:path-effect effect="spiro" id="path-effect857" is_visible="true" lpeversion="1" /><inkscape:path-effect effect="spiro" id="path-effect137" is_visible="true" lpeversion="1" /><inkscape:path-effect effect="spiro" id="path-effect133" is_visible="true" lpeversion="1" /><inkscape:path-effect effect="spiro" id="path-effect114" is_visible="true" lpeversion="1" /><inkscape:path-effect effect="spiro" id="path-effect853" is_visible="true" lpeversion="1" /><inkscape:path-effect effect="spiro" id="path-effect928" is_visible="true" lpeversion="1" /><inkscape:path-effect effect="spiro" id="path-effect921" is_visible="true" lpeversion="1" /><inkscape:path-effect effect="spiro" id="path-effect917" is_visible="true" lpeversion="1" /><inkscape:path-effect effect="spiro" id="path-effect849" is_visible="true" lpeversion="1" /><inkscape:path-effect effect="spiro" id="path-effect851" is_visible="true" lpeversion="1" />
  <svg:style type="text/css" id="style2">
   
    .fil0 {fill:#EF7F1A;fill-rule:nonzero}
   
  </svg:style>
 <inkscape:path-effect effect="spiro" id="path-effect1214" is_visible="true" lpeversion="1" /><inkscape:path-effect effect="spiro" id="path-effect1195" is_visible="true" lpeversion="1" /><inkscape:path-effect effect="spiro" id="path-effect992" is_visible="true" lpeversion="1" /><inkscape:path-effect effect="spiro" id="path-effect1060" is_visible="true" lpeversion="1" /><inkscape:path-effect effect="spiro" id="path-effect1047" is_visible="true" lpeversion="1" /><inkscape:path-effect effect="spiro" id="path-effect1085" is_visible="true" lpeversion="1" /><inkscape:path-effect effect="spiro" id="path-effect1286" is_visible="true" lpeversion="1" /><inkscape:path-effect effect="spiro" id="path-effect117" is_visible="true" lpeversion="1" /></svg:defs>
 
<svg:g id="g24621"><svg:g id="path135"><svg:path style="color:#000000;clip-rule:nonzero;fill:#1a5fb4;fill-rule:nonzero;stroke-linecap:round;stroke-linejoin:round;-inkscape-stroke:none;paint-order:fill stroke markers;shape-rendering:auto" d="M 221.37305,-65.183594 C 214.42897,-64.578063 207.52411,-62.014293 201.35937,-57.433594 L 95.96679700000001,20.878906 C 92.43626400000001,23.502263 88.67947400000001,26.773096000000002 85.27148400000002,32.552734 C 81.86349500000001,38.332373000000004 79.05065700000002,48.041058 81.55664100000001,57.800781 C 84.06262400000001,67.560504 90.95069200000002,74.44362100000001 96.48046900000001,77.871094 C 102.01025000000001,81.298566 106.72531000000001,82.48721 110.99805,83.216797 C 164.5839,92.366794 215.32238,121.86054999999999 249.53516000000002,164.00781 C 251.44809,166.36439000000001 253.15340000000003,168.88446000000002 254.97070000000002,171.31836 C 250.34098000000003,170.83241 245.69964000000002,170.44903000000002 241.03906000000003,170.27734 C 199.34283000000005,168.74133 158.41633000000002,179.91108 122.95313000000003,200.04492000000002 C 87.57497400000003,220.13048000000003 58.12905900000003,248.68804000000003 35.69335900000003,281.46875 C -9.11009959999997,346.93091 -24.682717999999973,426.21718 -23.814452999999972,501.80078000000003 C -22.984983999999972,574.00715 -7.18278039999997,649.11491 34.75195300000003,712.07227 C 55.74478200000003,743.58917 83.02422900000002,771.44177 115.85938000000003,792.01367 C 148.76027000000002,812.6267600000001 186.85323000000002,825.55829 226.50391000000002,827.37891 C 268.36062000000004,829.30082 309.5953,818.7281800000001 345.64062,799.26172 C 381.60467,779.83915 411.93394,751.97401 435.52930000000003,719.76758 C 482.6519,655.44769 501.6292,576.625 504.58008000000007,500.65234 C 507.52607000000006,424.80562999999995 495.1912700000001,348.57644 468.6132800000001,277.51367 C 445.35775,215.33431 411.9628,158.63528 375.95703,105.44531 C 338.59914,50.2579 297.56017,-2.4295959 253.19727,-52.160156 C 244.63213000000002,-61.761626 232.94651,-66.192811 221.37305,-65.183594 M 221.19141000000002,2.582031299999997 C 258.85345,45.974298 294.06354,91.500495 326.27148,139.08008 C 360.81552999999997,190.1107 391.58389999999997,242.83345000000003 412.41602,298.5332 C 436.19039,362.09982 447.25776,430.54187 444.625,498.32422 C 442.0032,565.8244100000001 424.86184000000003,632.80511 387.12891,684.3085900000001 C 368.29650000000004,710.0138400000001 344.33422,731.7774300000001 317.13086,746.4687500000001 C 290.00878,761.1161700000001 259.1141,768.8123900000002 229.25585999999998,767.4414100000001 C 200.9561,766.14198 172.45708,756.67144 147.71484,741.16992 C 122.90686,725.62721 101.40356,703.90667 84.6875,678.81055 C 51.204448,628.54185 36.914872,564.94003 36.181641,501.11133 C 35.414916,434.367 49.61832,367.35595 85.207031,315.35742 C 102.96742,289.40779 126.06449,267.27437 152.57617,252.22266 C 179.00279999999998,237.21922999999998 209.40589,229.15239 238.83008,230.23632999999998 C 260.45744,231.03303999999997 282.09574,236.74773 301.29687,246.73242 A 30.003,30.003 0.0 0,0 343.36719,209.96289 C 332.45517,179.62424 316.43891,151.22755 296.11914,126.19531 C 263.81111,86.394537 220.94823,56.06098 173.24219,38.210937 L 221.19141000000002,2.582031299999997 M 239.94922,272.29297 C 210.72404,272.39364 182.19173,279.93659 156.77733999999998,293.22266 C 131.40273,306.48792000000003 109.52596999999997,325.22585000000004 92.14257799999999,347.27930000000003 C 57.36006899999999,391.40614000000005 41.89479499999999,446.86927000000003 42.19335899999999,500.93945 C 42.47940399999999,552.7422 57.206794999999985,605.71954 89.84374999999999,648.55469 C 122.76414999999999,691.76184 173.23310999999998,722.25813 229.41015999999996,725.40039 C 259.32172999999995,727.07349 288.97157999999996,720.88301 315.63280999999995,708.4765600000001 C 342.25064,696.09031 365.45232999999996,677.76485 384.03124999999994,655.7558600000001 C 421.2099999999999,611.7131200000001 438.34622999999993,554.9891000000001 438.59374999999994,499.4785200000001 C 438.83484999999996,445.40937000000014 423.0967999999999,390.0226700000001 388.06640999999996,346.1523400000001 C 370.56086999999997,324.2292800000001 348.57825999999994,305.6653600000001 323.14257999999995,292.5996100000001 C 297.66774999999996,279.5137500000001 269.12476999999996,272.19247000000007 239.94921999999997,272.2929700000001 L 239.94922,272.29297 M 240.15625,332.29297 C 259.05841,332.22787000000005 278.43566,337.08875 295.72656,345.9707 C 313.05662,354.87277 328.68555000000003,367.94476000000003 341.17969,383.59180000000003 C 366.14864,414.86168000000004 378.78337,457.12506 378.59569999999997,499.21094000000005 C 378.40317999999996,542.38728 364.66155,585.68408 338.18163999999996,617.0527300000001 C 324.93123999999995,632.7494400000002 308.43992,645.6464100000001 290.32030999999995,654.0781200000001 C 272.24411,662.4896500000001 252.11708999999996,666.5767800000001 232.76171999999994,665.4941400000001 C 196.76119999999995,663.4804600000001 160.59957999999995,642.4192800000001 137.56835999999993,612.1914100000001 C 114.25368999999992,581.5915200000002 102.41708999999993,541.1249200000001 102.19335999999993,500.60742000000016 C 101.96006999999993,458.35887000000014 114.42140999999992,415.9424500000002 139.26561999999993,384.4238300000002 C 151.69558999999992,368.65454000000017 167.26899999999992,355.4432600000002 184.5742199999999,346.39648000000017 C 201.83965999999992,337.37050000000016 221.22161999999992,332.35819000000015 240.15624999999991,332.2929700000002 L 240.15625,332.29297" id="path2983" /></svg:g><svg:g id="path2487"><svg:path style="color:#000000;clip-rule:nonzero;fill:#1a5fb4;fill-rule:nonzero;stroke-linecap:round;stroke-linejoin:round;-inkscape-stroke:none;paint-order:fill stroke markers;shape-rendering:auto" d="M 343.57227,-59.271484 C 334.58297,-58.528116000000004 325.85254,-55.231698 318.9375,-49.263672 C 283.8509,-18.982187 245.89384,7.995121900000001 205.75977,31.167969 C 162.13191,56.358076 115.89351,77.068869 68.050781,92.861328 C 57.375072,96.385285 44.647859,105.73095 41.091797,121.05273 C 37.535735,136.37452 45.01576,150.64209 53.226562,158.46094 L 108.71875,211.30273 C 126.63352,228.36233 153.48542,228.43893 171.76367,212.71484 C 214.33584,176.09161 263.73031,147.24697 316.54882999999995,128.22461 C 349.83241,116.23767000000001 384.53279,108.09289000000001 419.67968999999994,104.00195000000001 C 430.61542999999995,102.72908000000001 445.21199999999993,96.43322 451.80468999999994,81.609375 C 458.39737999999994,66.78553 453.09694999999994,51.264758 446.43944999999997,42.320312 L 383.4707,-42.279297 C 374.255,-54.660731 358.55443,-60.510431999999994 343.57227,-59.271484 M 345.20508,6.798828099999994 L 377.29102,49.90820299999999 C 349.74707,55.05178 322.59351,62.276637 296.21875,71.775391 C 240.10664,91.98392 187.7069,121.97272 141.6582,159.82031 L 119.11914,138.35547 C 159.39797,123.11315 198.45847,104.66728 235.76172,83.128906 C 274.33586,60.856744 310.88536,35.182711 345.20508,6.7988281 L 345.20508,6.798828099999994" id="path2989" /></svg:g></svg:g></svg:svg>

<svg:svg xmlns:cc="http://creativecommons.org/ns#" xmlns:dc="http://purl.org/dc/elements/1.1/" xmlns:inkscape="http://www.inkscape.org/namespaces/inkscape" xmlns:rdf="http://www.w3.org/1999/02/22-rdf-syntax-ns#" xmlns:sodipodi="http://sodipodi.sourceforge.net/DTD/sodipodi-0.dtd" xmlns:svg="http://www.w3.org/2000/svg" xml:space="preserve" width="1000" height="1000" version="1.1" style="clip-rule:evenodd;fill-rule:evenodd;image-rendering:optimizeQuality;shape-rendering:geometricPrecision;text-rendering:geometricPrecision" viewBox="0 0 1000 1000" id="svg10" sodipodi:docname="ð.svg" inkscape:version="1.1.1 (3bf5ae0d25, 2021-09-20)"><svg:metadata id="metadata14"><rdf:RDF><cc:Work rdf:about=""><dc:format>image/svg+xml</dc:format><dc:type rdf:resource="http://purl.org/dc/dcmitype/StillImage" /><dc:title /></cc:Work></rdf:RDF></svg:metadata><sodipodi:namedview pagecolor="#ffffff" bordercolor="#666666" borderopacity="1" objecttolerance="10" gridtolerance="10" guidetolerance="10" inkscape:pageopacity="0" inkscape:pageshadow="2" inkscape:window-width="1920" inkscape:window-height="1009" id="namedview12" showgrid="false" inkscape:zoom="0.84890884" inkscape:cx="165.50658" inkscape:cy="204.969" inkscape:window-x="0" inkscape:window-y="60" inkscape:window-maximized="1" inkscape:current-layer="g24621" showguides="true" inkscape:guide-bbox="true" inkscape:document-rotation="0" inkscape:pagecheckerboard="0"><sodipodi:guide position="0,1000" orientation="0,1" id="guide16" inkscape:label="" inkscape:locked="true" inkscape:color="rgb(0,0,255)" /><sodipodi:guide position="1763.3122,2036.1693" orientation="1000,0" id="guide18" /><sodipodi:guide position="0,200" orientation="0,1" id="guide20" inkscape:label="base" inkscape:locked="true" inkscape:color="rgb(0,0,255)" /><inkscape:grid type="xygrid" id="grid24" originx="-473.37552" originy="-489.69235" /><sodipodi:guide position="0,0" orientation="0,1" id="guide34" inkscape:label="bottom" inkscape:locked="true" inkscape:color="rgb(0,0,255)" /><sodipodi:guide position="225.05109,1693.3186" orientation="0,1" id="guide44" inkscape:label="" inkscape:locked="false" inkscape:color="rgb(0,0,255)" /><sodipodi:guide position="0,900" orientation="0,1" id="guide46" inkscape:label="" inkscape:locked="true" inkscape:color="rgb(0,0,255)" /><sodipodi:guide position="479.0795,834.54867" orientation="1,0" id="guide841" inkscape:label="width" />    <sodipodi:guide position="-210.85892,799.74293" orientation="0,-1" id="guide856" /></sodipodi:namedview>
 <svg:defs id="defs4"><inkscape:path-effect effect="fillet_chamfer" id="path-effect25183" is_visible="true" lpeversion="1" satellites_param="F,0,0,1,0,15.486589,0,1 @ F,0,1,1,0,15.486589,0,1 @ F,0,0,1,0,0,0,1 @ F,0,1,1,0,15.486589,0,1 @ F,0,1,1,0,15.486589,0,1 @ F,0,0,1,0,0,0,1" unit="px" method="auto" mode="F" radius="0" chamfer_steps="1" flexible="false" use_knot_distance="true" apply_no_radius="true" apply_with_radius="true" only_selected="false" hide_knots="false" /><inkscape:path-effect effect="fillet_chamfer" id="path-effect25044" is_visible="true" lpeversion="1" satellites_param="F,0,0,1,0,0,0,1 @ F,0,0,1,0,0,0,1 @ F,0,0,1,0,0,0,1 @ F,0,0,1,0,0,0,1 @ F,0,0,1,0,0,0,1 @ F,0,0,1,0,0,0,1 @ F,0,0,1,0,0,0,1 @ F,0,0,1,0,0,0,1 @ F,0,0,1,0,0,0,1 @ F,0,0,1,0,0,0,1 @ F,0,0,1,0,0,0,1 | F,0,0,1,0,0,0,1 @ F,0,0,1,0,0,0,1 @ F,0,0,1,0,0,0,1 @ F,0,0,1,0,0,0,1 @ F,0,0,1,0,0,0,1 @ F,0,0,1,0,0,0,1 @ F,0,0,1,0,0,0,1 @ F,0,0,1,0,0,0,1 @ F,0,0,1,0,0,0,1 @ F,0,0,1,0,0,0,1 @ F,0,0,1,0,0,0,1 @ F,0,0,1,0,0,0,1 @ F,0,0,1,0,7.8602619,0,1 @ F,0,0,1,0,11.716345,0,1 @ F,0,0,1,0,0,0,1 @ F,0,0,1,0,0,0,1" unit="px" method="auto" mode="F" radius="0" chamfer_steps="1" flexible="false" use_knot_distance="true" apply_no_radius="true" apply_with_radius="true" only_selected="false" hide_knots="false" /><inkscape:path-effect effect="spiro" id="path-effect2489" is_visible="true" lpeversion="1" /><inkscape:path-effect effect="spiro" id="path-effect857" is_visible="true" lpeversion="1" /><inkscape:path-effect effect="spiro" id="path-effect137" is_visible="true" lpeversion="1" /><inkscape:path-effect effect="spiro" id="path-effect133" is_visible="true" lpeversion="1" /><inkscape:path-effect effect="spiro" id="path-effect114" is_visible="true" lpeversion="1" /><inkscape:path-effect effect="spiro" id="path-effect853" is_visible="true" lpeversion="1" /><inkscape:path-effect effect="spiro" id="path-effect928" is_visible="true" lpeversion="1" /><inkscape:path-effect effect="spiro" id="path-effect921" is_visible="true" lpeversion="1" /><inkscape:path-effect effect="spiro" id="path-effect917" is_visible="true" lpeversion="1" /><inkscape:path-effect effect="spiro" id="path-effect849" is_visible="true" lpeversion="1" /><inkscape:path-effect effect="spiro" id="path-effect851" is_visible="true" lpeversion="1" />
  <svg:style type="text/css" id="style2">
   
    .fil0 {fill:#EF7F1A;fill-rule:nonzero}
   
  </svg:style>
 <inkscape:path-effect effect="spiro" id="path-effect1214" is_visible="true" lpeversion="1" /><inkscape:path-effect effect="spiro" id="path-effect1195" is_visible="true" lpeversion="1" /><inkscape:path-effect effect="spiro" id="path-effect992" is_visible="true" lpeversion="1" /><inkscape:path-effect effect="spiro" id="path-effect1060" is_visible="true" lpeversion="1" /><inkscape:path-effect effect="spiro" id="path-effect1047" is_visible="true" lpeversion="1" /><inkscape:path-effect effect="spiro" id="path-effect1085" is_visible="true" lpeversion="1" /><inkscape:path-effect effect="spiro" id="path-effect1286" is_visible="true" lpeversion="1" /><inkscape:path-effect effect="spiro" id="path-effect117" is_visible="true" lpeversion="1" /></svg:defs>
 
<svg:g id="g24621"><svg:g id="path135"><svg:path style="color:#000000;clip-rule:nonzero;fill:#1a5fb4;fill-rule:nonzero;stroke-linecap:round;stroke-linejoin:round;-inkscape-stroke:none;shape-rendering:auto" d="m 221.37305,-65.183594 c -6.94408,0.605531 -13.84894,3.169301 -20.01368,7.75 l -105.392573,78.3125 c -3.530533,2.623357 -7.287323,5.89419 -10.695313,11.673828 -3.407989,5.779639 -6.220827,15.488324 -3.714843,25.248047 2.505983,9.759723 9.394051,16.64284 14.923828,20.070313 5.529781,3.427472 10.244841,4.616116 14.517581,5.345703 53.58585,9.149997 104.32433,38.643753 138.53711,80.791013 1.91293,2.35658 3.61824,4.87665 5.43554,7.31055 -4.62972,-0.48595 -9.27106,-0.86933 -13.93164,-1.04102 -41.69623,-1.53601 -82.62273,9.63374 -118.08593,29.76758 -35.378156,20.08556 -64.824071,48.64312 -87.259771,81.42383 -44.8034586,65.46216 -60.376077,144.74843 -59.507812,220.33203 0.829469,72.20637 16.6316726,147.31413 58.566406,210.27149 20.992829,31.5169 48.272276,59.3695 81.107427,79.9414 32.90089,20.61309 70.99385,33.54462 110.64453,35.36524 41.85671,1.92191 83.09139,-8.65073 119.13671,-28.11719 35.96405,-19.42257 66.29332,-47.28771 89.88868,-79.49414 47.1226,-64.31989 66.0999,-143.14258 69.05078,-219.11524 2.94599,-75.84671 -9.38881,-152.0759 -35.9668,-223.13867 C 445.35775,215.33431 411.9628,158.63528 375.95703,105.44531 338.59914,50.2579 297.56017,-2.4295959 253.19727,-52.160156 c -8.56514,-9.60147 -20.25076,-14.032655 -31.82422,-13.023438 z m -0.18164,67.7656253 c 37.66204,43.3922667 72.87213,88.9184637 105.08007,136.4980487 34.54405,51.03062 65.31242,103.75337 86.14454,159.45312 23.77437,63.56662 34.84174,132.00867 32.20898,199.79102 -2.6218,67.50019 -19.76316,134.48089 -57.49609,185.98437 -18.83241,25.70525 -42.79469,47.46884 -69.99805,62.16016 -27.12208,14.64742 -58.01676,22.34364 -87.875,20.97266 C 200.9561,766.14198 172.45708,756.67144 147.71484,741.16992 122.90686,725.62721 101.40356,703.90667 84.6875,678.81055 51.204448,628.54185 36.914872,564.94003 36.181641,501.11133 35.414916,434.367 49.61832,367.35595 85.207031,315.35742 c 17.760389,-25.94963 40.857459,-48.08305 67.369139,-63.13476 26.42663,-15.00343 56.82972,-23.07027 86.25391,-21.98633 21.62736,0.79671 43.26566,6.5114 62.46679,16.49609 a 30.003,30.003 0 0 0 42.07032,-36.76953 C 332.45517,179.62424 316.43891,151.22755 296.11914,126.19531 263.81111,86.394537 220.94823,56.06098 173.24219,38.210937 Z M 239.94922,272.29297 c -29.22518,0.10067 -57.75749,7.64362 -83.17188,20.92969 -25.37461,13.26526 -47.25137,32.00319 -64.634762,54.05664 -34.782509,44.12684 -50.247783,99.58997 -49.949219,153.66015 0.286045,51.80275 15.013436,104.78009 47.650391,147.61524 32.9204,43.20715 83.38936,73.70344 139.56641,76.8457 29.91157,1.6731 59.56142,-4.51738 86.22265,-16.92383 26.61783,-12.38625 49.81952,-30.71171 68.39844,-52.7207 37.17875,-44.04274 54.31498,-100.76676 54.5625,-156.27734 0.2411,-54.06915 -15.49695,-109.45585 -50.52734,-153.32618 -17.50554,-21.92306 -39.48815,-40.48698 -64.92383,-53.55273 -25.47483,-13.08586 -54.01781,-20.40714 -83.19336,-20.30664 z m 0.20703,60 c 18.90216,-0.0651 38.27941,4.79578 55.57031,13.67773 17.33006,8.90207 32.95899,21.97406 45.45313,37.6211 24.96895,31.26988 37.60368,73.53326 37.41601,115.61914 -0.19252,43.17634 -13.93415,86.47314 -40.41406,117.84179 -13.2504,15.69671 -29.74172,28.59368 -47.86133,37.02539 -18.0762,8.41153 -38.20322,12.49866 -57.55859,11.41602 -36.00052,-2.01368 -72.16214,-23.07486 -95.19336,-53.30273 -23.31467,-30.59989 -35.15127,-71.06649 -35.375,-111.58399 -0.23329,-42.24855 12.22805,-84.66497 37.07226,-116.18359 12.42997,-15.76929 28.00338,-28.98057 45.3086,-38.02735 17.26544,-9.02598 36.6474,-14.03829 55.58203,-14.10351 z" id="path2983" /></svg:g><svg:g id="path2487"><svg:path style="color:#000000;clip-rule:nonzero;fill:#1a5fb4;fill-rule:nonzero;stroke-linecap:round;stroke-linejoin:round;-inkscape-stroke:none;shape-rendering:auto" d="m 343.57227,-59.271484 c -8.9893,0.743368 -17.71973,4.039786 -24.63477,10.007812 -35.0866,30.281485 -73.04366,57.2587939 -113.17773,80.431641 -43.62786,25.190107 -89.86626,45.9009 -137.708989,61.693359 -10.675709,3.523957 -23.402922,12.869622 -26.958984,28.191402 -3.556062,15.32179 3.923963,29.58936 12.134765,37.40821 l 55.492188,52.84179 c 17.91477,17.0596 44.76667,17.1362 63.04492,1.41211 42.57217,-36.62323 91.96664,-65.46787 144.78516,-84.49023 33.28358,-11.98694 67.98396,-20.13172 103.13086,-24.22266 10.93574,-1.27287 25.53231,-7.56873 32.125,-22.392575 6.59269,-14.823845 1.29226,-30.344617 -5.36524,-39.289063 L 383.4707,-42.279297 c -9.2157,-12.381434 -24.91627,-18.231135 -39.89843,-16.992187 z m 1.63281,66.0703121 32.08594,43.1093749 C 349.74707,55.05178 322.59351,62.276637 296.21875,71.775391 240.10664,91.98392 187.7069,121.97272 141.6582,159.82031 L 119.11914,138.35547 C 159.39797,123.11315 198.45847,104.66728 235.76172,83.128906 274.33586,60.856744 310.88536,35.182711 345.20508,6.7988281 Z" id="path2989" /></svg:g></svg:g></svg:svg>
